assets/illustrations/spots/folder-3.svg

<svg width="500" height="500" viewBox="0 0 500 500" fill="none" xmlns="http://www.w3.org/2000/svg"><path d="M292.319 33.522c32.745-14.9 73.766-16.065 105.607.721 31.842 16.786 48.557 66.728 43.433 102.658-3.124 21.808-15.318 42.451-13.126 64.369 3.233 32.102 34.718 52.217 53.078 78.575 24.662 35.431 24.415 85.761 2.219 122.801-22.195 37.04-64.148 60.152-106.868 62.427-42.72 2.275-85.439-15.176-117.226-44.198-19.181-17.452-33.403-40.397-54.393-55.491-53.598-38.566-145.587 9.156-180.333-24.471-46.584-45.031-18.36-115.698 11.59-136.924 61.82-43.81 102.566 2.414 156.877-20.365 20.031-8.323 39.76-21.336 48.474-41.451 8.221-19.2 4.439-80.073 50.694-108.707" fill="#B9CBD3" style="mix-blend-mode:luminosity" opacity=".16"/><g opacity=".1" filter="url(#folder-3__a)"><path d="M443.271 464.612c0 7.65-93.914 13.852-209.762 13.852-115.849 0-209.763-6.202-209.763-13.852S117.66 450.76 233.51 450.76c115.848 0 209.762 6.202 209.762 13.852Z" fill="#0A0F1A"/></g><path d="M373.295 183.101H127.949c-22.583 0-40.89 18.307-40.89 40.89v16.356a8.179 8.179 0 0 0 8.178 8.179h70.005a8.294 8.294 0 0 1 7.77 5.495l8.914 26.972a24.713 24.713 0 0 0 23.226 16.602h200.856a8.179 8.179 0 0 0 8.178-8.179v-65.425c-.001-22.583-18.308-40.89-40.891-40.89Z" fill="#FFCD6B"/><g filter="url(#folder-3__b)"><path d="M146.861 81.078c0-8.143 6.601-14.743 14.744-14.743h127.257l78.18 77.382v188.684c0 8.142-6.601 14.743-14.744 14.743H161.605c-8.143 0-14.744-6.601-14.744-14.743V81.078Z" fill="#4DCB7B"/></g><path d="M288.861 65.536v70.867a7.372 7.372 0 0 0 7.372 7.371H367.1l-78.239-78.238Z" fill="#4AA86C"/><path fill-rule="evenodd" clip-rule="evenodd" d="M226.507 201.466v13.763a17.046 17.046 0 0 1-4.692 11.677 17.05 17.05 0 0 1 4.901 11.625v13.919c0 .938 3.232 3.806 9.175 3.806a7.819 7.819 0 1 1 0 15.639c-14.128 0-25.023-8.654-25.023-19.549v-13.815c0-.938-3.285-3.805-9.175-3.805a7.82 7.82 0 0 1 0-15.64c5.89 0 9.175-2.867 9.175-3.857v-13.763c0-10.948 10.895-19.497 24.814-19.497a7.82 7.82 0 1 1 0 15.639c-5.943 0-9.175 2.92-9.175 3.858Zm76.11 13.763c0 .99 3.284 3.857 9.175 3.857 2.074 0 4.063.824 5.529 2.291a7.816 7.816 0 0 1 0 11.058 7.816 7.816 0 0 1-5.529 2.291c-5.891 0-9.175 2.867-9.175 3.805v13.815c0 10.895-10.895 19.445-24.814 19.445a7.82 7.82 0 0 1 0-15.64c5.943 0 9.175-2.867 9.175-3.805v-13.815a17.044 17.044 0 0 1 4.9-11.625 17.046 17.046 0 0 1-4.9-11.677v-13.763c0-.938-3.232-3.858-9.175-3.858a7.821 7.821 0 0 1 0-15.639c13.919 0 24.814 8.549 24.814 19.497v13.763Z" fill="#F8FBFB"/><path opacity=".15" d="M204.025 265.517a8.408 8.408 0 0 0 7.769 5.496H366.52v30.668H146.859v-79.737h25.026a24.729 24.729 0 0 1 23.225 16.601l8.915 26.972Z" fill="#1A2437"/><path d="M422.108 281.239H204.895a8.407 8.407 0 0 1-7.769-5.496l-8.914-26.972a24.73 24.73 0 0 0-23.226-16.601H78.625c-13.55 0-24.535 10.984-24.535 24.534a231.864 231.864 0 0 0 9.667 66.473l32.712 108.802c5.183 17.338 21.144 29.207 39.24 29.18h230.952a40.89 40.89 0 0 0 38.421-26.579l35.329-94.246a99.15 99.15 0 0 0 6.232-34.56c0-13.55-10.985-24.535-24.535-24.535Z" fill="#FCDA97"/><defs><filter id="folder-3__a" x="7.746" y="434.76" width="451.525" height="59.705" filterUnits="userSpaceOnUse" color-interpolation-filters="sRGB"><feFlood flood-opacity="0" result="BackgroundImageFix"/><feBlend in="SourceGraphic" in2="BackgroundImageFix" result="shape"/><feGaussianBlur stdDeviation="8" result="effect1_foregroundBlur_10272_1668"/></filter><filter id="folder-3__b" x="135.524" y="49.329" width="242.853" height="303.484" filterUnits="userSpaceOnUse" color-interpolation-filters="sRGB"><feFlood flood-opacity="0" result="BackgroundImageFix"/><feColorMatrix in="SourceAlpha" values="0 0 0 0 0 0 0 0 0 0 0 0 0 0 0 0 0 0 127 0" result="hardAlpha"/><feOffset dy="-5.668"/><feGaussianBlur stdDeviation="5.668"/><feColorMatrix values="0 0 0 0 0.374547 0 0 0 0 0.481553 0 0 0 0 0.601935 0 0 0 0.15 0"/><feBlend in2="BackgroundImageFix" result="effect1_dropShadow_10272_1668"/><feBlend in="SourceGraphic" in2="effect1_dropShadow_10272_1668" result="shape"/></filter></defs></svg>

<svg width="500" height="500" viewBox="0 0 500 500" fill="none" xmlns="http://www.w3.org/2000/svg">
<g opacity="0.1" filter="url(#filter0_f_10272_1668)">
<path d="M443.271 464.612C443.271 472.262 349.357 478.464 233.509 478.464C117.66 478.464 23.7461 472.262 23.7461 464.612C23.7461 456.961 117.66 450.759 233.509 450.759C349.357 450.759 443.271 456.961 443.271 464.612Z" fill="#0A0F1A"/>
</g>
<path d="M290.153 4.90161C164.591 -13.2694 48.0715 73.7886 29.9005 199.351C11.7295 324.914 98.7876 441.433 224.35 459.604C349.913 477.775 466.432 390.717 484.603 265.154C502.774 139.592 415.716 23.0726 290.153 4.90161Z" fill="#B2DFFD" fill-opacity="0.5"/>
<path d="M373.294 183.101H127.948C105.365 183.101 87.0576 201.408 87.0576 223.991V240.347C87.0576 244.864 90.7194 248.526 95.2361 248.526H165.242C168.729 248.542 171.834 250.738 173.011 254.022L181.925 280.994C185.364 290.892 194.672 297.544 205.151 297.595H406.007C410.523 297.595 414.185 293.933 414.185 289.417V223.991C414.184 201.408 395.877 183.101 373.294 183.101Z" fill="#0D4FC1"/>
<g filter="url(#filter1_d_10272_1668)">
<path d="M146.86 81.078C146.86 72.9354 153.461 66.3345 161.604 66.3345H288.861L367.041 143.717V332.401C367.041 340.543 360.44 347.144 352.297 347.144H161.604C153.461 347.144 146.86 340.543 146.86 332.401V81.078Z" fill="#4DCB7B"/>
</g>
<path d="M288.86 65.5356V136.403C288.86 140.474 292.161 143.774 296.232 143.774H367.099L288.86 65.5356Z" fill="#4AA86C"/>
<path fill-rule="evenodd" clip-rule="evenodd" d="M226.507 201.466V215.228C226.49 219.577 224.811 223.754 221.815 226.906C224.875 230.012 226.629 234.172 226.716 238.531V252.45C226.716 253.388 229.948 256.255 235.891 256.255C237.964 256.255 239.953 257.079 241.42 258.546C242.886 260.012 243.71 262.001 243.71 264.075C243.71 266.149 242.886 268.138 241.42 269.604C239.953 271.071 237.964 271.895 235.891 271.895C221.763 271.895 210.868 263.241 210.868 252.346V238.531C210.868 237.593 207.583 234.725 201.693 234.725C199.619 234.725 197.63 233.902 196.163 232.435C194.697 230.969 193.873 228.98 193.873 226.906C193.873 224.832 194.697 222.843 196.163 221.376C197.63 219.91 199.619 219.086 201.693 219.086C207.583 219.086 210.868 216.219 210.868 215.228V201.466C210.868 190.518 221.763 181.969 235.682 181.969C237.756 181.969 239.745 182.793 241.211 184.259C242.678 185.726 243.502 187.715 243.502 189.789C243.502 191.862 242.678 193.851 241.211 195.318C239.745 196.784 237.756 197.608 235.682 197.608C229.739 197.608 226.507 200.528 226.507 201.466ZM302.617 215.228C302.617 216.219 305.901 219.086 311.792 219.086C313.866 219.086 315.855 219.91 317.321 221.376C318.788 222.843 319.612 224.832 319.612 226.906C319.612 228.98 318.788 230.969 317.321 232.435C315.855 233.902 313.866 234.725 311.792 234.725C305.901 234.725 302.617 237.593 302.617 238.531V252.346C302.617 263.241 291.722 271.791 277.803 271.791C275.729 271.791 273.74 270.967 272.273 269.5C270.807 268.034 269.983 266.045 269.983 263.971C269.983 261.897 270.807 259.908 272.273 258.442C273.74 256.975 275.729 256.151 277.803 256.151C283.746 256.151 286.978 253.284 286.978 252.346V238.531C287.064 234.172 288.818 230.012 291.878 226.906C288.806 223.787 287.051 219.606 286.978 215.228V201.466C286.978 200.528 283.746 197.608 277.803 197.608C275.729 197.608 273.74 196.784 272.273 195.318C270.807 193.851 269.983 191.862 269.983 189.789C269.983 187.715 270.807 185.726 272.273 184.259C273.74 182.793 275.729 181.969 277.803 181.969C291.722 181.969 302.617 190.518 302.617 201.466V215.228Z" fill="#F8FBFB"/>
<path opacity="0.15" d="M204.024 265.517C205.228 268.779 208.316 270.963 211.793 271.013H366.519V301.681H146.858V238.545V221.943H171.884C182.361 221.999 191.665 228.65 195.109 238.545L204.024 265.517Z" fill="#1A2437"/>
<path d="M422.107 281.239H204.894C201.417 281.19 198.329 279.006 197.125 275.743L188.211 248.771C184.767 238.876 175.462 232.225 164.985 232.17H78.6235C65.0735 232.17 54.089 243.155 54.089 256.705C54.0675 279.213 57.3237 301.606 63.7556 323.177L96.4685 431.979C101.651 449.317 117.612 461.186 135.708 461.159H366.66C383.766 461.208 399.094 450.604 405.081 434.58L440.411 340.334C444.527 329.276 446.638 317.572 446.642 305.774C446.642 292.224 435.657 281.239 422.107 281.239Z" fill="#0096FA"/>
<defs>
<filter id="filter0_f_10272_1668" x="7.74609" y="434.759" width="451.525" height="59.7046" filterUnits="userSpaceOnUse" color-interpolation-filters="sRGB">
<feFlood flood-opacity="0" result="BackgroundImageFix"/>
<feBlend mode="normal" in="SourceGraphic" in2="BackgroundImageFix" result="shape"/>
<feGaussianBlur stdDeviation="8" result="effect1_foregroundBlur_10272_1668"/>
</filter>
<filter id="filter1_d_10272_1668" x="135.523" y="49.3292" width="242.854" height="303.484" filterUnits="userSpaceOnUse" color-interpolation-filters="sRGB">
<feFlood flood-opacity="0" result="BackgroundImageFix"/>
<feColorMatrix in="SourceAlpha" type="matrix" values="0 0 0 0 0 0 0 0 0 0 0 0 0 0 0 0 0 0 127 0" result="hardAlpha"/>
<feOffset dy="-5.66843"/>
<feGaussianBlur stdDeviation="5.66843"/>
<feColorMatrix type="matrix" values="0 0 0 0 0.374547 0 0 0 0 0.481553 0 0 0 0 0.601935 0 0 0 0.15 0"/>
<feBlend mode="normal" in2="BackgroundImageFix" result="effect1_dropShadow_10272_1668"/>
<feBlend mode="normal" in="SourceGraphic" in2="effect1_dropShadow_10272_1668" result="shape"/>
</filter>
</defs>
</svg>
